X:1
T:James Gibb editions
T:Sub tuum praesidium - Rore
T:#
%%score [ 1 2 3 4 ]
L:1/8
Q:1/4=108
M:4/4
K:F
V:1 treble-8 nm="Tenor I" snm="T I"
V:2 treble-8 nm="Tenor II" snm="T II"
V:3 treble-8 nm="Tenor III" snm="T III"
V:4 bass nm="Bass" snm="B"
V:1
"^Cipriano de Rore\n(1515-65)" z8 |"^Sub tuum praesidium" z8 | z8 | z8 | d8 | (c4 d4) | %6
w: ||||Sub|tu\- *|
[M:4/4][K:treble-8] d2 d2 f2 f2 | e2 e2 (f3 e | dc B3 c d2- | d2) c2 A4 | z2 d4 c2 | B4 A2 (f2- | %12
w: um prae- si- di-|um con- fu\- *||* gì- mus,|san- cta|De- i Ge\-|
 f2 _e2 d4 | c2 B4) G2 | d4 z4 | d6 c2 | B2 A2 B2 A2 | G4 z2 G2- | G2 (B3 c d2) | d2 B2 _e2 d2 | %20
w: |* * ni-|trix,|san- cta|De- i Ge- ni-|trix; no\-|* stras * *|de- pre- ca- ti-|
 c2 d2 (f4 | d4) (d3 c | d4) z2 d2- | d2 _e2 d4- | d2 B2 (d4 | _e4) (e4 | d4) z2 d2- | d2 c2 d4- | %28
w: o- nes, no\-|* stras *|* de\-|* pre- ca\-|* ti- o\-|* nes|* ne|* de- spi\-|
 d2 c2 c4 | z4 A4 | G2 F4 D2 | (A3 B cA d2- | dA d4) ^c2 | d8- | d4 z4 | z4 d4 | B4 d2 f2- | %37
w: * ci- as|in|ne- ces- si-|ta\- * * * *|* * * ti-|bus,||sed|a pe- ri\-|
 f2 d2 d4 | _e4 d4- | d4 z4 | d6 c2 | B2 A4 (B2- | BA G3 F A2) | D4 z4 | d6 e2 | f2 c2 f4 | %46
w: * cu- lis|cun- ctis||li- be-|ra nos sem\-||per,|Vir- go|glo- ri- o-|
 d4 z2 f2- | f2 F2 G2 (A2- | AG F3 E E2) | F4 z2 B2- | B2 G2 B2 A2 | G2 F4 B2- | %52
w: sa et|* be- ne- di\-||cta. Al\-|* le- lu- ja,|al- le- lu\-|
[Q:1/4=107] B2[Q:1/4=106] G2[Q:1/4=104] z4 |[Q:1/4=102] d6[Q:1/4=100] B2 |[Q:1/4=97] _e8 | %55
w: * ja,|al- le-|lu-|
[Q:1/4=93] !fermata!d8 |] %56
w: ja.|
V:2
 z8 | z4 d4- | d4 (c4 | d4) d2 G2 | B2 A2 A4 | z2 F2 (B3 A |[M:4/4][K:treble-8] G2 D2 A2 A2 | %7
w: |Sub|* tu\-|* um prae-|si- di- um|con- fu\- *|* gi- mus, con-|
 (c3 B AG F2- | F2) D2 DEFG | A4) z2 A2- | A2 G2 (F3 E | G2) D2 F4- | G3 G D4 | z2 d4 c2 | %14
w: fu\- * * * *|* gi- mus, * * *|* san\-|* cta De\- *|* i Ge\-|* ni- trix,|san- cta|
 B2 A2 B2 A2 | G4 z2 F2 | D2 d4 d2 | (dcBA B4) | z4 (D4 | F4) G4 | A6 B2 | A2 F2 B2 A2 | G4 D4 | %23
w: De- i Ge- ni-|trix, De-|i Ge- ni-|trix; * * * *|no\-|* stras|de- pre-|ca- ti- o- nes,|no- stras|
 z4 z2 A2 | F2 (B3 A GF | G2) B2 c4 | F2 G2 A2 (B2- | BA A4) G2 | (A3 G ABcA | B4) z4 | z2 A4 G2 | %31
w: de-|pre- ca\- * * *|* ti- o-|nes ne de- spi\-|* * * ci-|as * * * * *||in ne-|
 (F2 ED E2) G2 | (F3 E/D/ E2) E2 | (D3 EFGAD | F4) z4 | A4 F4 | G2 B4 A2 | (DEFG A2) (B2- | %38
w: ces\- * * * si-|ta\- * * * ti-|bus, * * * * *||sed a|pe- ri- cu-|lis * * * * cun\-|
 BA G4) ^F2 | z2 (DE=FD A2- | A2) G2 F2 E2 | F4 D2 d2- | d2 _e2 d2 c2 | d4 c4 | z2 F4 G2 | %45
w: * * * ctis|li\- * * * *|* be- ra nos|sem- per, li\-|* be- ra nos|sem- per,|Vir- go|
 A4 D2 (d2- | dc B3 A/G/ A2) | B4 z2 F2 | F2 D2 G4 | A4 F4 | z2 G4 F2 | A4 G2 d2- | d2 c2 B2 A2 | %53
w: glo- ri- o\-||sa et|be- ne- di\-|* cta.|Al- le-|lu- ja, al\-|* le- lu- ja,|
 z2 G2 D2 (_E2- | E2 DC c4) | !fermata!=B8 |] %56
w: al- le- lu\-||ja.|
V:3
 z8 | z8 | z4 G4 | (F4 G4) | G2 D2 F2 F2 | E2 A2 (GFGA |[M:4/4][K:treble-8] B2 A2 (FGAF | %7
w: ||Sub|tu\- *|um prae- si- di-|um con- fu\- * * *|* gi- mus, * * *|
 G4) z2 A2- | A2 G2 F2 D2 | F2 E2 D4 | z8 | d6 c2 | B6 A2 | A2 GF G2) G2 | F4 z4 | B4 G2 (A2- | %16
w: * san\-|* cta De- i|Ge- ni- trix,||san- cta|De- i|Ge\- * * * ni-|trix,|san- cta De\-|
 AG G4) F2 | (BABc d2) _e2 | d4 z4 | z8 | z2 D4 (F2- | FG A2) G2 F2 | B2 B2 G2 F2 | G4 F4 | %24
w: * * * i|Ge\- * * * * ni-|trix;||no- stras|* * * de- pre-|ca- ti- o- nes,|no- stras|
 z2 G2 F2 (B2- | BAGF G2) A2 | (B3 A/G/ F2) G2 | z2 F4 D2 | F2 E2 F4 | z2 d4 d2 | c4 B4 | c6 B2 | %32
w: de- pre- ca\-|* * * * * ti-|o\- * * * nes|ne de-|spi- ci- as|in ne-|ces- si-|ta- ti-|
 A8 | z2 A4 F2 | A2 B4 A2 | (DEFG A2) (B2- | BA G2) (F3 G | A4) z2 d2- | d2 c2 B2 A2 | B4 A2 (FG | %40
w: bus,|sed a|pe- ri- cu-|lis * * * * cun\-|* * * ctis *|* li-|* be- ra nos|sem- per, li\- *|
 AF B2) A2 G2 | d4 d4 | G4 z2 F2- | F2 G2 A2 F2 | B4 A2 c2- | c2 A4 B2- | B2 G2 c4 | d4 z2 c2 | %48
w: * * * be- ra|nos sem-|per, Vir\-|* go glo- ri-|o- sa, Vir\-|* go glo\-|* ri- o-|sa et|
 A2 A2 (c4- | c2 BABA d2- | dc/B/ c2) d4- | d4 z4 | G6 F2 | B8 | G8- | !fermata!G8 |] %56
w: be- ne- di\-||* * * * cta.||Al- le-|lu-|ja.||
V:4
 G,8 | (F,4 G,4) | G,2 D,2 _E,2 E,2 | D,2 B,,2 (B,3 A, | G,2) F,2 (D,4 | A,,4) z4 |[M:4/4] z4 D,4 | %7
w: Sub|tu\- *|um prae- si- di-|um con- fu\- *|* gi- mus,||sub|
 (C,4 D,4) | D,2 G,,2 B,,2 B,,2 | A,,2 A,,2 (F,3 E, | D,C, B,,4) A,,2 | G,,4 z4 | z2 G,4 F,2 | %13
w: tu\- *|um prae- si- di-|um con- fu\- *|* * * gì-|mus,|san- cta|
 F,2 D,2 _E,3 E, | D,2 D,4 C,2 | B,,2 G,,2 B,,2 A,,2 | (B,,3 C, D,4) | z8 | G,,6 (B,,2- | %19
w: De- i Ge- ni-|trix, san- cta|De- i Ge- ni-|trix; * *||no- stras|
 B,,C, D,2) C,2 B,,2 | F,2 F,2 D,4 | D,4 z4 | z2 (G,,4 B,,2- | B,,2) C,2 D,4- | D,2 _E,2 D,2 B,,2 | %25
w: * * * de- pre-|ca- ti- o-|nes,|no\- *|* stras de\-|* pre- ca- ti-|
 (_E,3 D, C,4) | B,,4 z2 G,,2- | G,,2 A,,2 B,,3 B,, | A,,4 z2 A,2- | A,2 G,2 (F,2 E,D, | %30
w: o\- * *|nes ne|* de- spi- ci-|as in|* ne- ces\- * *|
 E,2 F,2 (B,,4 | A,,6) G,,2 | D,4 A,,4) | z4 D,4- | D,2 B,,2 D,2 F,2- | F,2 D,2 D,4 | _E,4 D,4 | %37
w: * si- ta\-|* ti-|bus, *|sed|* a pe- ri\-|* cu- lis|cun- ctis|
 z2 (D,E,F,D, G,2- | G,2) C,2 D,4 | G,,4 D,4- | D,2 G,,2 z4 | D,3- E, F,D, G,2- | %42
w: 1i\- * * * *|* be- ra|nos sem\-|* per,|li\- * * * *|
 G,2 C,2 B,,2 A,,2 | B,,4 A,,4 | z2 D,4 C,2 | F,6 D,2 | G,4 F,4 | z2 B,,2 B,,2 A,,2 | D,4 C,4 | %49
w: * be- ra nos|sem- per,|Vir- go|glo- ri-|o- sa|et be- ne-|di- cta.|
 z2 D,4 B,,2 | _E,4 D,4 | z2 D,4 B,,2 | _E,4 D,4 | G,,4 G,,4 | C,8 | !fermata!G,,8 |] %56
w: Al- le-|lu- ja,|al- le-|lu- ja,|al- le-|lu-|ja.|

